X:1
T:Loyalty to Christ
T:Matthew Lindsay McPhail
T:Loyalty to Christ
T:Public Domain
T:Public Domain
C:Matthew Lindsay McPhail
Z:Public Domain
%%score ( 1 2 ) ( 3 4 )
L:1/8
M:4/4
K:C
V:1 treble 
V:2 treble 
V:3 bass 
V:4 bass 
V:1
 [EG]2 | [Ec]>[Ec] [Ec]>[Ec] [Ec][EG][CE][DF] | [EG]>[^D^F] [EG]>[=FA] [EG]2 ([=DF]>[CE]) | %3
w: 1.~Our|hearts have felt the rap- ture of the|pre- sence of our God, We’re *|
w: 2.~We’ve|heard the call of Je- sus as it|e- choes thro’ the soul, Louder *|
w: 3.~We’ve|hosts of sin to con- quer in the|name of Christ our king, We’ve *|
w: 4.~In|“Loy- al- ty to Je- sus” will we|ev- er do His will, The *|
 [CE]>[B,D] [B,D]>[CE] [EG][DF][CE][B,D] | [B,D]CCC [B,D]2 [CE]2 | %5
w: press- ing on to vic- t’ry in the|paths too long un- trod, The|
w: than the call of trump- et or the|sol- emn drum- beat’s roll, The|
w: souls to win for Je- sus till with|joy the heav’ns shall ring, And|
w: God that leads our forc- es will di-|rect and bless us still; His|
 [Ec]>[Ec] [Ec]>[Ec] [Ec][EG][CE][DF] | [EG]>[^D^F] [EG]>[=FA] [EG]2 [CE]2 | %7
w: our sym- bol and sal- va- tion thro’|His blood, Our hosts are march-|
w: to du- ty, or heart- serv- ice asks|the whole, As He is march-|
w: to car- ry till the dist- ant isles|shall sing— That God is march-|
w: ing prom- is- es He will in us|ful- fill, As He is march-|
 [B,D]2 ([DB]>[Ec]) [DB]2 [CA]2 | [B,G]8 ||"^Refrain" [Ec]3 [GB] [FA]>[Ac] [GB]>[FA] | %10
w: ing on. * * *|||
w: ing on. * Loy- al-|ty|to Christ as- sures us Vic-|
w: ing on. * * *|||
w: ing on. * * *|||
 [EG]4 [CE]4 | [Fd]3 [Ec] [FB]>[Fd] [Ec]>[FA] | [FA]4 [EG]4 | [Ge]3 [Fd] [Ec]>[Ge] [Fd]>[Gc] | %14
w: ||||
w: to- ry|so grand and glor- ious; All|our foes|shall fall be- fore us, Our|
w: ||||
w: ||||
 [Ac]4 [FA]2 [Ad]2 | [Gc]2 [Gc]2 [FB]2 [FG]2 | (E2 F2 E2) |] %17
w: |||
w: God is march-|ing on. * *||
w: |||
w: |||
V:2
 x2 | x8 | x8 | x8 | x CCC x4 | x8 | x8 | x8 | x8 || x8 | x8 | x8 | x8 | x8 | x8 | x8 | c6 |] %17
w: ||||cross of Christ|||||||||||||
w: ||||God who calls|||||||||||||
w: ||||Gos- pel words|||||||||||||
w: ||||ev- er- last-|||||||||||||
V:3
 [C,C]2 | [C,G,]>[C,G,] [C,G,]>[C,G,] [C,G,][C,C][C,G,][C,G,] | %2
 [C,C]>[C,C] [C,C]>[C,C] [C,C]2 (B,,>C,) | %3
 [G,,G,]>[G,,G,] [G,,G,]>[G,,G,] [G,,G,][G,,G,][G,,G,]G, | %4
 [F,G,][E,G,][E,G,][D,G,] [C,G,]2 [C,C]2 | [C,G,]>[C,G,] [C,G,]>[C,G,] [C,G,][C,C][C,G,][C,G,] | %6
 [C,C]>[C,C] [C,C]>[C,C] [C,C]2 [C,G,]2 | [D,G,]2 [D,G,]2 [D,G,]2 [D,^F,]2 | G,2 F,2 E,2 D,2 || %9
 [C,G,]3 [E,C] [F,C]>[F,C] [F,C]>[F,C] | [C,C]4 [C,G,]4 | [G,B,]3 [G,C] [G,D]>[G,B,] [C,C]>[C,C] | %12
 [C,C]4 [C,C]4 | [C,C]3 [C,G,] [C,G,]>[C,C] [D,B,]>[E,C] | [F,C]4 [F,C]2 [F,F]2 | %15
 [G,E]2 [G,E]2 [G,D]2 [G,B,]2 | ([C,G,]2 [C,A,]2 [C,G,]2) |] %17
V:4
 x2 | x8 | x6 G,2 | x7 G, | x8 | x8 | x8 | x8 | G,8 || x8 | x8 | x8 | x8 | x8 | x8 | x8 | x6 |] %17

